X:3
%#Noindex
%%maxstaffsep 66
T:Ave Verum Corpus (Tenor viol I)
C:William Byrd
L:1/2
M:4/2
I:linebreak $
K:Bb alto 
 D4 | D2 C2- | C    C  D2- | D2 D2 | F2 F2 |$ F   F  F2- | F F D3/   D/ | D2 z B,- | B,  B, B,2 | B,2 D2- | %10
w: A-|ve ve-|  -   rum cor-| - pus,|na- tum|  de Ma- ri- | - a Vir-  gi-| ne:        Ve-| -   re pas-|sum, im- |
   D =E  F2-|$ F2 C2 | z B, F3/  F/ | C  D2  C  | D2 z =E- | E =E  F2 |$ =E  F2   E  | F =E/D/ C  F- | %18
w: - mo- la-|   - tum|   in cru-  ce|pro ho- mi-| ne,   Cu-| - ius la-|  tus per- fo-|ra -  - tum un-|
   F E  D2  | C2 D3/   D/ |$ D2  C3/    C/ | D2 z E- |E  E   D2 | =E F2     F | F2  F   F |$ G2   G   B, | F2  F    F | %27
w: - da flu-|xit san- gui-|  ne, san-  gui-| ne:   E-|-  sto no-|bis prae- gu-|sta- tum in|  mor- tis, in|mor- tis ex-|
   F3/ E/  D2 | z D E2  | D2 z D |$ D2 =B,2 | z B, F2 | E D2  C | z F,  B,2- | B, A,/G,/ A,2 |$ %35
w: a-  mi- ne,|   O dul-| cis, O |  pi- e,  |    O Je-|su Fi- li|   Ma- ri-  | -  -  -    ae,|
   B,3/ D/  C  B, | A,2 B,2 | C3/ E/  D   A, | D3/  F/  E   D |$ C   A, D3/  C/ | A, B,/C/ D E | D C D2 | %42
w: Mi-  se- re- re| me- i,  |mi-  se- re- re,| mi-  se- re- re|  me- i, mi-  se-|re- re me - - | - - -  |
  =B,4 | z D E2  |$ D2 z D | D2 =B,2 | z B, F2 | E  D2  C | z F,  B,2- | B, A,/G,/ A,2 |$ %50
w: i,  |   O dul-|  cis, O | pi-  e, |   O  Je-| su Fi- li|   Ma- ri-  | -  -  -    ae,|
   B,3/ D/  C   B, | A,2 B,2| C3/  E/  D   A, | D3/  F/  E   D |$ C   A, D3/  C/ | A,  B,/ C/ D E | D C D2 | %57
w: Mi-  se- re- re | me-  i,| mi-  se- re- re,| mi-  se- re- re|  me- i, mi-  se-| re- re  me - - | - - -  |
  =B,2 C2-  | C B, E2- |$ E D/C/ D2-|D4 |] %61
w:  i,  A-  | - -  -   |  - - -  men.|_|

